icon-themes/breeze_svg/cmd/sc_hideallnotes.svg

<svg viewBox="0 0 16 16" xmlns="http://www.w3.org/2000/svg"><path d="m4 2v1 1h-1-1v7l.4394531.439453 1.4433594-1.439453h-.8828125v-5h1v3 1h.8847656l1.0019532-1h-.8867188v-5h5.894531l1.001953-1zm9.3125 0-11.3144531 11.294922.7148437.705078 11.2851564-11.3027344zm.6875 2.1113281-1 1.0019531v1.8867188 1h-2.882812l-1.117188 1.1191406v.8808594h-.8789062l-.9980469 1h.9277343 1.9492188l.050781-2h3.949219v-2z" fill="#4d4d4d"/></svg>

<svg viewBox="0 0 16 16" xmlns="http://www.w3.org/2000/svg">
  <path
     style="fill:#4d4d4d"
     d="M 4 2 L 4 3 L 4 4 L 3 4 L 2 4 L 2 11 L 2.4394531 11.439453 L 3.8828125 10 L 3 10 L 3 5 L 4 5 L 4 8 L 4 9 L 4.8847656 9 L 5.8867188 8 L 5 8 L 5 3 L 10.894531 3 L 11.896484 2 L 4 2 z M 13.3125 2 L 1.9980469 13.294922 L 2.7128906 14 L 13.998047 2.6972656 L 13.3125 2 z M 14 4.1113281 L 13 5.1132812 L 13 7 L 13 8 L 10.117188 8 L 9 9.1191406 L 9 10 L 8.1210938 10 L 7.1230469 11 L 8.0507812 11 L 10 11 L 10.050781 9 L 14 9 L 14 7 L 14 4.1113281 z "
     />
</svg>
